svgs/duotone/tachograph-digital.svg

<svg xmlns="http://www.w3.org/2000/svg" viewBox="0 0 640 512"><!-- Font Awesome Pro 6.0.0-alpha2 by @fontawesome - https://fontawesome.com License - https://fontawesome.com/license (Commercial License) --><defs><style>.fa-secondary{opacity:.4}</style></defs><path d="M576 64H64C28.801 64 0 92.799 0 128V384C0 419.199 28.801 448 64 448H576C611.199 448 640 419.199 640 384V128C640 92.799 611.199 64 576 64ZM64 296C64 291.625 67.625 288 72 288H88C92.375 288 96 291.625 96 296V312C96 316.375 92.375 320 88 320H72C67.625 320 64 316.375 64 312V296ZM352 368C352 376.8 344.8 384 336 384H80C71.2 384 64 376.8 64 368V368C64 359.2 71.2 352 80 352H336C344.8 352 352 359.2 352 368V368ZM128 312V296C128 291.625 131.625 288 136 288H152C156.375 288 160 291.625 160 296V312C160 316.375 156.375 320 152 320H136C131.625 320 128 316.375 128 312ZM192 312V296C192 291.625 195.625 288 200 288H216C220.375 288 224 291.625 224 296V312C224 316.375 220.375 320 216 320H200C195.625 320 192 316.375 192 312ZM256 312V296C256 291.625 259.625 288 264 288H280C284.375 288 288 291.625 288 296V312C288 316.375 284.375 320 280 320H264C259.625 320 256 316.375 256 312ZM352 312C352 316.375 348.375 320 344 320H328C323.625 320 320 316.375 320 312V296C320 291.625 323.625 288 328 288H344C348.375 288 352 291.625 352 296V312ZM352 237.713C352 247.857 344.4 256 334.934 256H81.066C71.6 256 64 247.857 64 237.713V146.285C64 136.143 71.6 128 81.066 128H334.934C344.4 128 352 136.143 352 146.285V237.713ZM576 368C576 376.8 568.8 384 560 384H400C391.2 384 384 376.8 384 368V368C384 359.2 391.2 352 400 352H560C568.8 352 576 359.2 576 368V368Z" class="fa-secondary"/><path d="M560 352H400C391.2 352 384 359.2 384 368V368C384 376.8 391.2 384 400 384H560C568.8 384 576 376.8 576 368V368C576 359.2 568.8 352 560 352ZM336 352H80C71.2 352 64 359.2 64 368V368C64 376.8 71.2 384 80 384H336C344.8 384 352 376.8 352 368V368C352 359.2 344.8 352 336 352ZM334.934 128H81.066C71.6 128 64 136.143 64 146.285V237.713C64 247.857 71.6 256 81.066 256H334.934C344.4 256 352 247.857 352 237.713V146.285C352 136.143 344.4 128 334.934 128Z" class="fa-primary"/></svg>

<svg xmlns="http://www.w3.org/2000/svg" viewBox="0 0 640 512"><!--! Font Awesome Pro 6.3.0 by @fontawesome - https://fontawesome.com License - https://fontawesome.com/license (Commercial License) Copyright 2023 Fonticons, Inc. --><defs><style>.fa-secondary{opacity:.4}</style></defs><path class="fa-primary" d="M560 352h-160c-8.8 0-16 7.2-16 16s7.2 16 16 16h160c8.8 0 16-7.2 16-16S568.8 352 560 352zM336 352h-256C71.2 352 64 359.2 64 368S71.2 384 79.1 384h256c8.8 0 16-7.2 16-16S344.8 352 336 352zM334.9 128H81.07C71.6 128 64 136.1 64 146.3v91.43C64 247.9 71.6 256 81.07 256h253.9C344.4 256 352 247.9 352 237.7V146.3C352 136.1 344.4 128 334.9 128z"/><path class="fa-secondary" d="M576 64H64C28.8 64 0 92.8 0 128v256c0 35.2 28.8 64 64 64h512c35.2 0 64-28.8 64-64V128C640 92.8 611.2 64 576 64zM64 296C64 291.6 67.63 288 72 288h16C92.38 288 96 291.6 96 296v16C96 316.4 92.38 320 88 320h-16C67.63 320 64 316.4 64 312V296zM352 368c0 8.8-7.2 16-16 16h-256C71.2 384 64 376.8 64 368S71.2 352 79.1 352h256C344.8 352 352 359.2 352 368zM128 312v-16C128 291.6 131.6 288 136 288h16C156.4 288 160 291.6 160 296v16C160 316.4 156.4 320 152 320h-16C131.6 320 128 316.4 128 312zM192 312v-16C192 291.6 195.6 288 200 288h16C220.4 288 224 291.6 224 296v16C224 316.4 220.4 320 216 320h-16C195.6 320 192 316.4 192 312zM256 312v-16C256 291.6 259.6 288 264 288h16C284.4 288 288 291.6 288 296v16C288 316.4 284.4 320 280 320h-16C259.6 320 256 316.4 256 312zM352 312C352 316.4 348.4 320 344 320h-16C323.6 320 320 316.4 320 312v-16C320 291.6 323.6 288 328 288h16C348.4 288 352 291.6 352 296V312zM352 237.7C352 247.9 344.4 256 334.9 256H81.07C71.6 256 64 247.9 64 237.7V146.3C64 136.1 71.6 128 81.07 128h253.9C344.4 128 352 136.1 352 146.3V237.7zM576 368c0 8.8-7.2 16-16 16h-160c-8.8 0-16-7.2-16-16s7.2-16 16-16h160C568.8 352 576 359.2 576 368z"/></svg>
